icon/fa/sleigh.svg

<svg xmlns="http://www.w3.org/2000/svg" viewBox="0 0 640 512"><!--! Font Awesome Free 6.1.2 by @fontawesome - https://fontawesome.com License - https://fontawesome.com/license/free (Icons: CC BY 4.0, Fonts: SIL OFL 1.1, Code: MIT License) Copyright 2022 Fonticons, Inc.--><path d="M63.1 32c3.21 0 5.46.24 7.64.71 53.36 4.9 103.46 34.88 132.66 81.59l4.3 6.8c40 64 110.1 102.9 185.6 102.9 30.2 0 54.7-24.5 54.7-54.7V128c0-17.7 14.3-32 32-32h64c17.7 0 32 14.3 32 32s-14.3 32-32 32v96c0 53-43 96-96 96v32h-64v-32H192v32h-64v-32c-53.02 0-96-43-96-96V96C14.33 96 0 81.67 0 64s14.33-32 32-32h31.1zM640 392c0 48.6-39.4 88-88 88H63.1c-16.77 0-32-14.3-32-32s15.23-32 32-32H552c13.3 0 24-10.7 24-24v-8c0-17.7 14.3-32 32-32s32 14.3 32 32v8z"/></svg>

<svg xmlns="http://www.w3.org/2000/svg" viewBox="0 0 640 512" height="1em" width="1em">
<!--! Font Awesome Free 6.1.2 by @fontawesome - https://fontawesome.com License - https://fontawesome.com/license/free (Icons: CC BY 4.0, Fonts: SIL OFL 1.1, Code: MIT License) Copyright 2022 Fonticons, Inc.-->
  <path d="M63.1 32C66.31 32 68.56 32.24 70.74 32.71C124.1 37.61 174.2 67.59 203.4 114.3L207.7 121.1C247.7 185.1 317.8 224 393.3 224C423.5 224 448 199.5 448 169.3V128C448 110.3 462.3 96 480 96H544C561.7 96 576 110.3 576 128C576 145.7 561.7 160 544 160V256C544 309 501 352 448 352V384H384V352H192V384H128V352C74.98 352 32 309 32 256V96C14.33 96 0 81.67 0 64C0 46.33 14.33 32 32 32H63.1zM640 392C640 440.6 600.6 480 552 480H63.1C46.33 480 31.1 465.7 31.1 448C31.1 430.3 46.33 416 63.1 416H552C565.3 416 576 405.3 576 392V384C576 366.3 590.3 352 608 352C625.7 352 640 366.3 640 384V392z"/>
</svg>
